build/service/EyeOffOutline.svg

<svg xmlns="http://www.w3.org/2000/svg" fill="none" viewBox="0 0 24 24" focusable="false"><path d="M0 0H24V24H0z"/><path fill="#74767B" fill-rule="evenodd" d="M4.38181 2.20689C4.66633 1.98798 5.07443 2.04117 5.29334 2.32569L8.01359 5.86127C9.18902 5.3362 10.5197 4.99998 12 4.99998C16.8808 4.99998 20.1338 8.65462 21.5632 10.6825C22.1262 11.4812 22.1262 12.5187 21.5632 13.3174C20.7028 14.5382 19.1815 16.3483 17.0422 17.596L19.5944 20.9131C19.8133 21.1976 19.7601 21.6057 19.4756 21.8246C19.191 22.0435 18.7829 21.9903 18.564 21.7058L4.26301 3.11842C4.0441 2.8339 4.09729 2.4258 4.38181 2.20689ZM15.9203 16.1378C17.0164 15.099 17.7 13.6293 17.7 12C17.7 8.85195 15.1481 6.29998 12 6.29998C10.9013 6.29998 9.87512 6.61087 9.00474 7.14949L10.6245 9.25474C11.02 9.06756 11.4621 8.96287 11.9287 8.96287C13.6144 8.96287 14.981 10.3294 14.981 12.0151C14.981 12.198 14.9649 12.3771 14.9341 12.5511C14.9356 12.5974 14.9309 12.6451 14.9194 12.6939C14.8404 13.0274 14.7058 13.3393 14.5259 13.6193C14.4468 13.747 14.3586 13.8685 14.2622 13.9827L15.9203 16.1378ZM5.76496 7.19868C4.24441 8.34247 3.12767 9.70247 2.43688 10.6825C1.8739 11.4812 1.8739 12.5187 2.43688 13.3174C3.86626 15.3453 7.11931 19 12 19C12.916 19 13.7746 18.8713 14.5746 18.6488L13.6565 17.4555C13.1323 17.6145 12.5762 17.7 12 17.7C8.85202 17.7 6.30004 15.148 6.30004 12C6.30004 10.8997 6.61178 9.87226 7.15176 9.00113L5.76496 7.19868ZM11.8175 15.0654L11.7965 15.0645C11.7801 15.0287 11.7603 14.9939 11.7369 14.9606L11.8175 15.0654ZM5.70874 8.92726C4.76185 9.77766 4.02109 10.6914 3.49945 11.4315C3.25305 11.7811 3.25305 12.2189 3.49945 12.5685C4.02109 13.3085 4.76185 14.2223 5.70873 15.0727C5.25483 14.1451 5.00004 13.1023 5.00004 12C5.00004 10.8977 5.25483 9.85487 5.70874 8.92726ZM18.2913 8.92726C19.2382 9.77766 19.979 10.6914 20.5006 11.4315C20.747 11.7811 20.747 12.2189 20.5006 12.5685C19.979 13.3085 19.2382 14.2223 18.2913 15.0727C18.7452 14.1451 19 13.1023 19 12C19 10.8977 18.7452 9.85486 18.2913 8.92726Z"/></svg>

<svg xmlns="http://www.w3.org/2000/svg" fill="none" viewBox="0 0 24 24" focusable="false"><path fill="#74767B" fill-rule="evenodd" d="M4.38 2.2c.28-.22.69-.16.91.12l2.72 3.54c1.17-.53 2.5-.87 3.99-.87 4.88 0 8.13 3.66 9.56 5.69.56.8.56 1.83 0 2.63-.86 1.22-2.38 3.03-4.52 4.28l2.55 3.32c.22.28.17.69-.12.91-.28.22-.69.17-.91-.12L4.26 3.11a.643.643 0 0 1 .12-.91m11.54 13.93A5.7 5.7 0 0 0 17.7 12c0-3.15-2.56-5.71-5.7-5.71-1.1 0-2.13.32-3 .85l1.62 2.11c.4-.19.84-.29 1.3-.29 1.69 0 3.06 1.36 3.06 3.05 0 .18-.02.36-.05.54 0 .04 0 .09-.02.14-.07.33-.21.64-.39.92-.08.13-.17.25-.26.37zM5.76 7.19C4.24 8.34 3.12 9.7 2.43 10.68c-.56.8-.56 1.83 0 2.63C3.86 15.34 7.11 19 12 19c.91 0 1.77-.13 2.57-.36l-.92-1.19c-.52.16-1.08.25-1.65.25-3.15 0-5.71-2.56-5.71-5.7 0-1.11.32-2.13.86-3zm6.05 7.87h-.02a.2.2 0 0 0-.06-.1zM5.7 8.92c-.94.85-1.68 1.77-2.21 2.51-.24.35-.24.78 0 1.13.53.74 1.27 1.66 2.21 2.51C5.25 14.14 5 13.1 5 12c0-1.11.25-2.15.7-3.08m12.59 0c.94.85 1.68 1.77 2.21 2.51.24.35.24.78 0 1.13-.53.74-1.27 1.66-2.21 2.51.45-.93.71-1.97.71-3.07 0-1.11-.26-2.15-.71-3.08"/></svg>
